src/svg/16/done_circle_16.svg

<svg fill="none" height="16" viewBox="0 0 16 16" width="16" xmlns="http://www.w3.org/2000/svg"><path d="m8 0c4.4183 0 8 3.58172 8 8 0 4.4183-3.5817 8-8 8-4.41828 0-8-3.5817-8-8 0-4.41828 3.58172-8 8-8zm2.4636 5.6636-3.5636 3.56361-1.3636-1.36361c-.35148-.35147-.92132-.35147-1.2728 0-.35147.35148-.35147.92132 0 1.2728l2 2c.35148.3515.92132.3515 1.2728 0l4.2-4.2c.3515-.35148.3515-.92132 0-1.2728-.3515-.35147-.9213-.35147-1.2728 0z" fill="currentColor"/></svg>

<svg width="16" height="16" viewBox="0 0 16 16" fill="none" xmlns="http://www.w3.org/2000/svg">
<path d="M8 0C12.4183 0 16 3.58172 16 8C16 12.4183 12.4183 16 8 16C3.58172 16 0 12.4183 0 8C0 3.58172 3.58172 0 8 0ZM10.4636 5.6636L6.9 9.22721L5.5364 7.8636C5.18492 7.51213 4.61508 7.51213 4.2636 7.8636C3.91213 8.21508 3.91213 8.78492 4.2636 9.1364L6.2636 11.1364C6.61508 11.4879 7.18492 11.4879 7.5364 11.1364L11.7364 6.9364C12.0879 6.58492 12.0879 6.01508 11.7364 5.6636C11.3849 5.31213 10.8151 5.31213 10.4636 5.6636Z" fill="currentColor"/>
</svg>
